svg/color/bac.svg

<?xml version="1.0" encoding="UTF-8" ?>
<!DOCTYPE svg PUBLIC "-//W3C//DTD SVG 1.1//EN" "http://www.w3.org/Graphics/SVG/1.1/DTD/svg11.dtd">
<svg width="250pt" height="250pt" viewBox="0 0 250 250" version="1.1" xmlns="http://www.w3.org/2000/svg">
<g id="#ffffffff">
<path fill="#ffffff" opacity="1.00" d=" M 0.00 0.00 L 250.00 0.00 L 250.00 250.00 L 0.00 250.00 L 0.00 0.00 M 110.47 20.74 C 82.05 24.56 55.58 40.69 39.12 64.17 C 24.24 85.03 17.35 111.49 20.46 136.94 C 22.75 158.54 32.21 179.23 46.72 195.35 C 63.65 214.28 87.68 226.81 112.96 229.54 C 138.21 232.62 164.47 225.92 185.26 211.29 C 205.56 197.20 220.57 175.70 226.80 151.79 C 231.64 133.59 231.38 114.12 226.20 96.02 C 218.57 68.97 199.53 45.40 174.70 32.23 C 155.24 21.70 132.37 17.63 110.47 20.74 Z" />
<path fill="#ffffff" opacity="1.00" d=" M 82.15 41.87 C 98.59 33.32 117.63 29.91 136.02 32.13 C 156.70 34.51 176.48 44.10 191.11 58.91 C 205.92 73.52 215.48 93.30 217.87 113.96 C 220.57 136.07 215.00 159.07 202.42 177.45 C 194.29 189.22 183.65 199.56 170.95 206.25 C 177.19 196.71 181.17 185.47 180.78 173.97 C 181.07 154.02 169.06 134.72 151.44 125.55 C 138.76 118.71 123.35 117.36 109.58 121.49 C 98.81 124.70 89.27 131.43 82.20 140.12 C 82.14 107.37 82.24 74.62 82.15 41.87 Z" />
<path fill="#ffffff" opacity="1.00" d=" M 35.80 96.84 C 41.74 77.70 54.21 60.85 70.33 49.03 C 70.44 87.69 70.35 126.35 70.38 165.02 C 70.44 172.10 69.97 179.28 71.66 186.24 C 73.27 194.04 76.92 201.23 81.41 207.76 C 61.97 197.51 46.31 180.25 38.19 159.82 C 30.14 139.94 29.32 117.28 35.80 96.84 Z" />
<path fill="#ffffff" opacity="1.00" d=" M 116.49 131.81 C 126.67 129.59 137.61 131.22 146.71 136.31 C 158.09 142.51 166.36 154.11 168.48 166.90 C 170.85 179.49 167.03 193.04 158.65 202.70 C 150.63 212.10 138.44 217.93 126.04 217.81 C 116.88 218.07 107.74 215.08 100.31 209.77 C 88.69 201.51 81.47 187.32 82.21 173.01 C 82.28 153.52 97.47 135.62 116.49 131.81 Z" />
</g>
<g id="#8e4afeff">
<path fill="#8e4afe" opacity="1.00" d=" M 110.47 20.74 C 132.37 17.63 155.24 21.70 174.70 32.23 C 199.53 45.40 218.57 68.97 226.20 96.02 C 231.38 114.12 231.64 133.59 226.80 151.79 C 220.57 175.70 205.56 197.20 185.26 211.29 C 164.47 225.92 138.21 232.62 112.96 229.54 C 87.68 226.81 63.65 214.28 46.72 195.35 C 32.21 179.23 22.75 158.54 20.46 136.94 C 17.35 111.49 24.24 85.03 39.12 64.17 C 55.58 40.69 82.05 24.56 110.47 20.74 M 82.15 41.87 C 82.24 74.62 82.14 107.37 82.20 140.12 C 89.27 131.43 98.81 124.70 109.58 121.49 C 123.35 117.36 138.76 118.71 151.44 125.55 C 169.06 134.72 181.07 154.02 180.78 173.97 C 181.17 185.47 177.19 196.71 170.95 206.25 C 183.65 199.56 194.29 189.22 202.42 177.45 C 215.00 159.07 220.57 136.07 217.87 113.96 C 215.48 93.30 205.92 73.52 191.11 58.91 C 176.48 44.10 156.70 34.51 136.02 32.13 C 117.63 29.91 98.59 33.32 82.15 41.87 M 35.80 96.84 C 29.32 117.28 30.14 139.94 38.19 159.82 C 46.31 180.25 61.97 197.51 81.41 207.76 C 76.92 201.23 73.27 194.04 71.66 186.24 C 69.97 179.28 70.44 172.10 70.38 165.02 C 70.35 126.35 70.44 87.69 70.33 49.03 C 54.21 60.85 41.74 77.70 35.80 96.84 M 116.49 131.81 C 97.47 135.62 82.28 153.52 82.21 173.01 C 81.47 187.32 88.69 201.51 100.31 209.77 C 107.74 215.08 116.88 218.07 126.04 217.81 C 138.44 217.93 150.63 212.10 158.65 202.70 C 167.03 193.04 170.85 179.49 168.48 166.90 C 166.36 154.11 158.09 142.51 146.71 136.31 C 137.61 131.22 126.67 129.59 116.49 131.81 Z" />
</g>
</svg>

<?xml version="1.0" encoding="utf-8"?>
<!-- Generator: Adobe Illustrator 26.0.3, SVG Export Plug-In . SVG Version: 6.00 Build 0)  -->
<svg version="1.1" id="Layer_1" xmlns="http://www.w3.org/2000/svg" xmlns:xlink="http://www.w3.org/1999/xlink" x="0px" y="0px"
	 viewBox="0 0 250 250" style="enable-background:new 0 0 250 250;" xml:space="preserve">
<style type="text/css">
	.st0{fill:#FFFFFF;}
	.st1{fill:#8E4AFE;}
</style>
<g id="_x23_ffffffff">
	<path class="st0" d="M82.2,41.9c16.4-8.5,35.5-12,53.9-9.7c20.7,2.4,40.5,12,55.1,26.8c14.8,14.6,24.4,34.4,26.8,55
		c2.7,22.1-2.9,45.1-15.4,63.5c-8.1,11.8-18.8,22.1-31.5,28.8c6.2-9.5,10.2-20.8,9.8-32.3c0.3-19.9-11.7-39.2-29.3-48.4
		c-12.7-6.8-28.1-8.2-41.9-4.1c-10.8,3.2-20.3,9.9-27.4,18.6C82.1,107.4,82.2,74.6,82.2,41.9z"/>
	<path class="st0" d="M35.8,96.8c5.9-19.1,18.4-36,34.5-47.8c0.1,38.7,0,77.3,0,116c0.1,7.1-0.4,14.3,1.3,21.2
		c1.6,7.8,5.3,15,9.8,21.5c-19.4-10.2-35.1-27.5-43.2-47.9C30.1,139.9,29.3,117.3,35.8,96.8z"/>
	<path class="st0" d="M116.5,131.8c10.2-2.2,21.1-0.6,30.2,4.5c11.4,6.2,19.6,17.8,21.8,30.6c2.4,12.6-1.4,26.1-9.8,35.8
		c-8,9.4-20.2,15.2-32.6,15.1c-9.2,0.3-18.3-2.7-25.7-8c-11.6-8.3-18.8-22.4-18.1-36.8C82.3,153.5,97.5,135.6,116.5,131.8z"/>
</g>
<g id="_x23_8e4afeff">
	<path class="st1" d="M110.5,20.7c21.9-3.1,44.8,1,64.2,11.5C199.5,45.4,218.6,69,226.2,96c5.2,18.1,5.4,37.6,0.6,55.8
		c-6.2,23.9-21.2,45.4-41.5,59.5c-20.8,14.6-47,21.3-72.3,18.2c-25.3-2.7-49.3-15.3-66.2-34.2c-14.5-16.1-24-36.8-26.3-58.4
		c-3.1-25.5,3.8-51.9,18.7-72.8C55.6,40.7,82.1,24.6,110.5,20.7 M82.2,41.9c0.1,32.8,0,65.5,0,98.2c7.1-8.7,16.6-15.4,27.4-18.6
		c13.8-4.1,29.2-2.8,41.9,4.1c17.6,9.2,29.6,28.5,29.3,48.4c0.4,11.5-3.6,22.7-9.8,32.3c12.7-6.7,23.3-17,31.5-28.8
		c12.6-18.4,18.2-41.4,15.4-63.5c-2.4-20.7-11.9-40.4-26.8-55c-14.6-14.8-34.4-24.4-55.1-26.8C117.6,29.9,98.6,33.3,82.2,41.9
		 M35.8,96.8c-6.5,20.4-5.7,43.1,2.4,63c8.1,20.4,23.8,37.7,43.2,47.9c-4.5-6.5-8.1-13.7-9.8-21.5c-1.7-7-1.2-14.1-1.3-21.2
		c0-38.7,0.1-77.3,0-116C54.2,60.8,41.7,77.7,35.8,96.8 M116.5,131.8c-19,3.8-34.2,21.7-34.3,41.2c-0.7,14.3,6.5,28.5,18.1,36.8
		c7.4,5.3,16.6,8.3,25.7,8c12.4,0.1,24.6-5.7,32.6-15.1c8.4-9.7,12.2-23.2,9.8-35.8c-2.1-12.8-10.4-24.4-21.8-30.6
		C137.6,131.2,126.7,129.6,116.5,131.8z"/>
</g>
</svg>
